resources/star.svg

<svg xmlns="http://www.w3.org/2000/svg" width="24" height="24" fill="#f4f4f7" viewBox="0 0 24 24"><path stroke="#4B5563" stroke-linecap="round" stroke-linejoin="round" stroke-width="2" d="M11.0489 2.92707C11.3483 2.00576 12.6517 2.00576 12.9511 2.92707L14.4697 7.60083C14.6035 8.01285 14.9875 8.29181 15.4207 8.29181H20.335C21.3037 8.29181 21.7065 9.53143 20.9228 10.1008L16.947 12.9894C16.5965 13.244 16.4499 13.6954 16.5838 14.1074L18.1024 18.7812C18.4017 19.7025 17.3472 20.4686 16.5635 19.8992L12.5878 17.0107C12.2373 16.756 11.7627 16.756 11.4122 17.0107L7.43647 19.8992C6.65276 20.4686 5.59828 19.7025 5.89763 18.7812L7.41623 14.1074C7.5501 13.6954 7.40344 13.244 7.05296 12.9894L3.07722 10.1008C2.2935 9.53143 2.69628 8.29181 3.665 8.29181H8.57929C9.01251 8.29181 9.39647 8.01285 9.53034 7.60083L11.0489 2.92707Z"/></svg>

<svg width="24" height="24" fill="#f4f4f7">
  <path stroke="#4B5563" stroke-linecap="round" stroke-linejoin="round" stroke-width="2" d="M11.049 2.927c.3-.921 1.603-.921 1.902 0l1.519 4.674a1 1 0 0 0 .95.69h4.915c.969 0 1.371 1.24.588 1.81l-3.976 2.888a1 1 0 0 0-.363 1.118l1.518 4.674c.3.922-.755 1.688-1.538 1.118l-3.976-2.888a1 1 0 0 0-1.176 0l-3.976 2.888c-.783.57-1.838-.197-1.538-1.118l1.518-4.674a1 1 0 0 0-.363-1.118l-3.976-2.888c-.784-.57-.38-1.81.588-1.81h4.914a1 1 0 0 0 .951-.69l1.519-4.674Z"/>
</svg>
